assets/1. F-P/Input latin letters/Color/Input.Latin.Letters-color.svg

<svg width="100%" height="100%" viewBox="0 0 32 32" fill="none" xmlns="http://www.w3.org/2000/svg">
<g filter="url(#filter0_ii_18590_2270)">
<rect x="1.93433" y="2.3125" width="27.875" height="27.875" rx="3.6" fill="url(#paint0_linear_18590_2270)"/>
<rect x="1.93433" y="2.3125" width="27.875" height="27.875" rx="3.6" fill="url(#paint1_radial_18590_2270)"/>
</g>
<g filter="url(#filter1_f_18590_2270)">
<path d="M28.1218 4.8125V27.6875" stroke="url(#paint2_linear_18590_2270)" stroke-width="1.5" stroke-linecap="round"/>
</g>
<g filter="url(#filter2_f_18590_2270)">
<path d="M5.39819 4.125H27.1794" stroke="url(#paint3_linear_18590_2270)" stroke-width="1.5" stroke-linecap="round"/>
</g>
<g filter="url(#filter3_f_18590_2270)">
<path d="M12.7982 20.1388C12.7982 20.5888 13.1682 20.9588 13.6182 20.9588C13.9084 20.9588 14.1653 20.8049 14.3112 20.575C14.3434 20.5242 14.4102 20.5034 14.4625 20.5331C14.9395 20.804 15.491 20.9587 16.0782 20.9587C17.8882 20.9587 19.3582 19.4887 19.3582 17.6787V16.4887C19.3582 14.6787 17.8882 13.2087 16.0782 13.2087C15.5428 13.2087 15.0372 13.3374 14.5906 13.5653C14.5219 13.6004 14.4382 13.5518 14.4382 13.4748V10.2988C14.4382 9.84876 14.0682 9.47876 13.6182 9.47876C13.1682 9.47876 12.7982 9.84876 12.7982 10.2988V20.1388ZM14.4382 16.4887C14.4382 15.5887 15.1782 14.8487 16.0782 14.8487C16.9782 14.8487 17.7182 15.5887 17.7182 16.4887V17.6787C17.7182 18.5787 16.9782 19.3187 16.0782 19.3187C15.1782 19.3187 14.4382 18.5787 14.4382 17.6787V16.4887Z" fill="#579FFF"/>
<path d="M23.5082 20.9587C21.6982 20.9587 20.2281 19.4887 20.2281 17.6787V16.4887C20.2281 14.6787 21.6982 13.2087 23.5082 13.2087C24.8981 13.2087 26.1382 14.0887 26.6082 15.3987C26.7582 15.8287 26.5382 16.2987 26.1082 16.4487C25.6782 16.5987 25.2082 16.3787 25.0582 15.9487C24.8282 15.2887 24.2082 14.8487 23.5082 14.8487C22.6082 14.8487 21.8682 15.5887 21.8682 16.4887V17.6787C21.8682 18.5787 22.6082 19.3187 23.5082 19.3187C24.1982 19.3187 24.8282 18.8787 25.0582 18.2187C25.2082 17.7887 25.6782 17.5687 26.1082 17.7187C26.5382 17.8687 26.7582 18.3387 26.6082 18.7687C26.1382 20.0787 24.8981 20.9587 23.5082 20.9587Z" fill="#579FFF"/>
<path d="M9.9024 20.4559C9.95933 20.4201 10.036 20.4468 10.0664 20.5067C10.2022 20.774 10.4802 20.9587 10.7982 20.9587C11.2482 20.9587 11.6182 20.5887 11.6182 20.1387V16.1787C11.6182 14.5387 10.2882 13.2087 8.64825 13.2087H6.69817C6.24817 13.2087 5.87817 13.5787 5.87817 14.0287C5.87817 14.4787 6.24817 14.8487 6.69817 14.8487H8.64825C9.37825 14.8487 9.97825 15.4387 9.97825 16.1787V16.3187C9.97825 16.3739 9.93348 16.4187 9.87825 16.4187H7.66819C6.41819 16.4187 5.39819 17.4387 5.39819 18.6887C5.39819 19.9387 6.41819 20.9587 7.66819 20.9587H8.15819C8.79751 20.9587 9.39566 20.7741 9.9024 20.4559ZM6.88819 18.6887C6.88819 18.2587 7.23819 17.9087 7.66819 17.9087H9.82492C9.88506 17.9087 9.93181 17.9616 9.92052 18.0206C9.76281 18.8457 9.02921 19.4687 8.15819 19.4687H7.66819C7.23819 19.4687 6.88819 19.1187 6.88819 18.6887Z" fill="#579FFF"/>
</g>
<g filter="url(#filter4_ii_18590_2270)">
<path d="M12.7982 20.1388C12.7982 20.5888 13.1682 20.9588 13.6182 20.9588C13.9084 20.9588 14.1653 20.8049 14.3112 20.575C14.3434 20.5242 14.4102 20.5034 14.4625 20.5331C14.9395 20.804 15.491 20.9587 16.0782 20.9587C17.8882 20.9587 19.3582 19.4887 19.3582 17.6787V16.4887C19.3582 14.6787 17.8882 13.2087 16.0782 13.2087C15.5428 13.2087 15.0372 13.3374 14.5906 13.5653C14.5219 13.6004 14.4382 13.5518 14.4382 13.4748V10.2988C14.4382 9.84876 14.0682 9.47876 13.6182 9.47876C13.1682 9.47876 12.7982 9.84876 12.7982 10.2988V20.1388ZM14.4382 16.4887C14.4382 15.5887 15.1782 14.8487 16.0782 14.8487C16.9782 14.8487 17.7182 15.5887 17.7182 16.4887V17.6787C17.7182 18.5787 16.9782 19.3187 16.0782 19.3187C15.1782 19.3187 14.4382 18.5787 14.4382 17.6787V16.4887Z" fill="#FCF2FF"/>
<path d="M23.5082 20.9587C21.6982 20.9587 20.2281 19.4887 20.2281 17.6787V16.4887C20.2281 14.6787 21.6982 13.2087 23.5082 13.2087C24.8981 13.2087 26.1382 14.0887 26.6082 15.3987C26.7582 15.8287 26.5382 16.2987 26.1082 16.4487C25.6782 16.5987 25.2082 16.3787 25.0582 15.9487C24.8282 15.2887 24.2082 14.8487 23.5082 14.8487C22.6082 14.8487 21.8682 15.5887 21.8682 16.4887V17.6787C21.8682 18.5787 22.6082 19.3187 23.5082 19.3187C24.1982 19.3187 24.8282 18.8787 25.0582 18.2187C25.2082 17.7887 25.6782 17.5687 26.1082 17.7187C26.5382 17.8687 26.7582 18.3387 26.6082 18.7687C26.1382 20.0787 24.8981 20.9587 23.5082 20.9587Z" fill="#FCF2FF"/>
<path d="M9.9024 20.4559C9.95933 20.4201 10.036 20.4468 10.0664 20.5067C10.2022 20.774 10.4802 20.9587 10.7982 20.9587C11.2482 20.9587 11.6182 20.5887 11.6182 20.1387V16.1787C11.6182 14.5387 10.2882 13.2087 8.64825 13.2087H6.69817C6.24817 13.2087 5.87817 13.5787 5.87817 14.0287C5.87817 14.4787 6.24817 14.8487 6.69817 14.8487H8.64825C9.37825 14.8487 9.97825 15.4387 9.97825 16.1787V16.3187C9.97825 16.3739 9.93348 16.4187 9.87825 16.4187H7.66819C6.41819 16.4187 5.39819 17.4387 5.39819 18.6887C5.39819 19.9387 6.41819 20.9587 7.66819 20.9587H8.15819C8.79751 20.9587 9.39566 20.7741 9.9024 20.4559ZM6.88819 18.6887C6.88819 18.2587 7.23819 17.9087 7.66819 17.9087H9.82492C9.88506 17.9087 9.93181 17.9616 9.92052 18.0206C9.76281 18.8457 9.02921 19.4687 8.15819 19.4687H7.66819C7.23819 19.4687 6.88819 19.1187 6.88819 18.6887Z" fill="#FCF2FF"/>
</g>
<defs>
<filter id="filter0_ii_18590_2270" x="1.93433" y="1.3125" width="28.875" height="28.875" filterUnits="userSpaceOnUse" color-interpolation-filters="sRGB">
<feFlood flood-opacity="0" result="BackgroundImageFix"/>
<feBlend mode="normal" in="SourceGraphic" in2="BackgroundImageFix" result="shape"/>
<feColorMatrix in="SourceAlpha" type="matrix" values="0 0 0 0 0 0 0 0 0 0 0 0 0 0 0 0 0 0 127 0" result="hardAlpha"/>
<feOffset dx="1" dy="-1"/>
<feGaussianBlur stdDeviation="1.5"/>
<feComposite in2="hardAlpha" operator="arithmetic" k2="-1" k3="1"/>
<feColorMatrix type="matrix" values="0 0 0 0 0.188235 0 0 0 0 0.470588 0 0 0 0 0.843137 0 0 0 1 0"/>
<feBlend mode="normal" in2="shape" result="effect1_innerShadow_18590_2270"/>
<feColorMatrix in="SourceAlpha" type="matrix" values="0 0 0 0 0 0 0 0 0 0 0 0 0 0 0 0 0 0 127 0" result="hardAlpha"/>
<feOffset dy="-1"/>
<feGaussianBlur stdDeviation="1.5"/>
<feComposite in2="hardAlpha" operator="arithmetic" k2="-1" k3="1"/>
<feColorMatrix type="matrix" values="0 0 0 0 0.27451 0 0 0 0 0.34902 0 0 0 0 0.8 0 0 0 1 0"/>
<feBlend mode="normal" in2="effect1_innerShadow_18590_2270" result="effect2_innerShadow_18590_2270"/>
</filter>
<filter id="filter1_f_18590_2270" x="25.3718" y="2.0625" width="5.5" height="28.375" filterUnits="userSpaceOnUse" color-interpolation-filters="sRGB">
<feFlood flood-opacity="0" result="BackgroundImageFix"/>
<feBlend mode="normal" in="SourceGraphic" in2="BackgroundImageFix" result="shape"/>
<feGaussianBlur stdDeviation="1" result="effect1_foregroundBlur_18590_2270"/>
</filter>
<filter id="filter2_f_18590_2270" x="2.64819" y="1.375" width="27.2812" height="5.5" filterUnits="userSpaceOnUse" color-interpolation-filters="sRGB">
<feFlood flood-opacity="0" result="BackgroundImageFix"/>
<feBlend mode="normal" in="SourceGraphic" in2="BackgroundImageFix" result="shape"/>
<feGaussianBlur stdDeviation="1" result="effect1_foregroundBlur_18590_2270"/>
</filter>
<filter id="filter3_f_18590_2270" x="4.39819" y="8.47876" width="23.257" height="13.48" filterUnits="userSpaceOnUse" color-interpolation-filters="sRGB">
<feFlood flood-opacity="0" result="BackgroundImageFix"/>
<feBlend mode="normal" in="SourceGraphic" in2="BackgroundImageFix" result="shape"/>
<feGaussianBlur stdDeviation="0.5" result="effect1_foregroundBlur_18590_2270"/>
</filter>
<filter id="filter4_ii_18590_2270" x="4.39819" y="9.07876" width="22.657" height="12.88" filterUnits="userSpaceOnUse" color-interpolation-filters="sRGB">
<feFlood flood-opacity="0" result="BackgroundImageFix"/>
<feBlend mode="normal" in="SourceGraphic" in2="BackgroundImageFix" result="shape"/>
<feColorMatrix in="SourceAlpha" type="matrix" values="0 0 0 0 0 0 0 0 0 0 0 0 0 0 0 0 0 0 127 0" result="hardAlpha"/>
<feOffset dx="-1" dy="1"/>
<feGaussianBlur stdDeviation="1"/>
<feComposite in2="hardAlpha" operator="arithmetic" k2="-1" k3="1"/>
<feColorMatrix type="matrix" values="0 0 0 0 0.866667 0 0 0 0 0.819608 0 0 0 0 0.941176 0 0 0 1 0"/>
<feBlend mode="normal" in2="shape" result="effect1_innerShadow_18590_2270"/>
<feColorMatrix in="SourceAlpha" type="matrix" values="0 0 0 0 0 0 0 0 0 0 0 0 0 0 0 0 0 0 127 0" result="hardAlpha"/>
<feOffset dx="0.4" dy="-0.4"/>
<feGaussianBlur stdDeviation="0.5"/>
<feComposite in2="hardAlpha" operator="arithmetic" k2="-1" k3="1"/>
<feColorMatrix type="matrix" values="0 0 0 0 1 0 0 0 0 0.988235 0 0 0 0 1 0 0 0 1 0"/>
<feBlend mode="normal" in2="effect1_innerShadow_18590_2270" result="effect2_innerShadow_18590_2270"/>
</filter>
<linearGradient id="paint0_linear_18590_2270" x1="15.8718" y1="5.88701" x2="15.8718" y2="39.1397" gradientUnits="userSpaceOnUse">
<stop stop-color="#5CB7FF"/>
<stop offset="1" stop-color="#4878DD"/>
</linearGradient>
<radialGradient id="paint1_radial_18590_2270" cx="0" cy="0" r="1" gradientUnits="userSpaceOnUse" gradientTransform="translate(27.5906 4.40625) rotate(136.771) scale(2.14444 2.50466)">
<stop stop-color="#7BD7FF"/>
<stop offset="1" stop-color="#7BD7FF" stop-opacity="0"/>
</radialGradient>
<linearGradient id="paint2_linear_18590_2270" x1="28.6218" y1="4.8125" x2="28.6218" y2="27.6875" gradientUnits="userSpaceOnUse">
<stop stop-color="#7FD9FF"/>
<stop offset="1" stop-color="#639DF4"/>
</linearGradient>
<linearGradient id="paint3_linear_18590_2270" x1="28.3357" y1="4.37502" x2="2.80444" y2="4.37502" gradientUnits="userSpaceOnUse">
<stop stop-color="#7DD8FF"/>
<stop offset="1" stop-color="#5DB6FF"/>
</linearGradient>
</defs>
</svg>

<svg width="100%" height="100%" viewBox="0 0 32 32" xmlns="http://www.w3.org/2000/svg"><g filter="url(#a)"><rect width="27.875" height="27.875" x="1.934" y="2.313" fill="url(#b)" rx="3.6"/><rect width="27.875" height="27.875" x="1.934" y="2.313" fill="url(#c)" rx="3.6"/></g><g filter="url(#d)"><path stroke="url(#e)" stroke-linecap="round" stroke-width="1.5" d="M28.122 4.813v22.875"/></g><g filter="url(#f)"><path stroke="url(#g)" stroke-linecap="round" stroke-width="1.5" d="M5.398 4.125H27.18"/></g><g fill="#579FFF" filter="url(#h)"><path d="M12.798 20.139c0 .45.37.82.82.82.29 0 .547-.154.693-.384.032-.05.1-.072.152-.042a3.282 3.282 0 0 0 4.896-2.854v-1.19a3.282 3.282 0 0 0-4.768-2.924c-.07.035-.153-.013-.153-.09v-3.176c0-.45-.37-.82-.82-.82s-.82.37-.82.82zm1.64-3.65c0-.9.74-1.64 1.64-1.64s1.64.74 1.64 1.64v1.19c0 .9-.74 1.64-1.64 1.64s-1.64-.74-1.64-1.64zM23.508 20.959c-1.81 0-3.28-1.47-3.28-3.28v-1.19c0-1.81 1.47-3.28 3.28-3.28a3.3 3.3 0 0 1 3.1 2.19c.15.43-.07.9-.5 1.05a.82.82 0 0 1-1.05-.5c-.23-.66-.85-1.1-1.55-1.1-.9 0-1.64.74-1.64 1.64v1.19c0 .9.74 1.64 1.64 1.64.69 0 1.32-.44 1.55-1.1a.82.82 0 0 1 1.05-.5c.43.15.65.62.5 1.05a3.3 3.3 0 0 1-3.1 2.19M9.902 20.456c.057-.036.134-.01.164.05a.82.82 0 0 0 .732.453c.45 0 .82-.37.82-.82v-3.96a2.97 2.97 0 0 0-2.97-2.97h-1.95c-.45 0-.82.37-.82.82s.37.82.82.82h1.95c.73 0 1.33.59 1.33 1.33v.14a.1.1 0 0 1-.1.1h-2.21c-1.25 0-2.27 1.02-2.27 2.27s1.02 2.27 2.27 2.27h.49a3.27 3.27 0 0 0 1.744-.503m-3.014-1.767c0-.43.35-.78.78-.78h2.157c.06 0 .107.053.096.112a1.795 1.795 0 0 1-1.763 1.448h-.49c-.43 0-.78-.35-.78-.78"/></g><g fill="#FCF2FF" filter="url(#i)"><path d="M12.798 20.139c0 .45.37.82.82.82.29 0 .547-.154.693-.384.032-.05.1-.072.152-.042a3.282 3.282 0 0 0 4.896-2.854v-1.19a3.282 3.282 0 0 0-4.768-2.924c-.07.035-.153-.013-.153-.09v-3.176c0-.45-.37-.82-.82-.82s-.82.37-.82.82zm1.64-3.65c0-.9.74-1.64 1.64-1.64s1.64.74 1.64 1.64v1.19c0 .9-.74 1.64-1.64 1.64s-1.64-.74-1.64-1.64zM23.508 20.959c-1.81 0-3.28-1.47-3.28-3.28v-1.19c0-1.81 1.47-3.28 3.28-3.28a3.3 3.3 0 0 1 3.1 2.19c.15.43-.07.9-.5 1.05a.82.82 0 0 1-1.05-.5c-.23-.66-.85-1.1-1.55-1.1-.9 0-1.64.74-1.64 1.64v1.19c0 .9.74 1.64 1.64 1.64.69 0 1.32-.44 1.55-1.1a.82.82 0 0 1 1.05-.5c.43.15.65.62.5 1.05a3.3 3.3 0 0 1-3.1 2.19M9.902 20.456c.057-.036.134-.01.164.05a.82.82 0 0 0 .732.453c.45 0 .82-.37.82-.82v-3.96a2.97 2.97 0 0 0-2.97-2.97h-1.95c-.45 0-.82.37-.82.82s.37.82.82.82h1.95c.73 0 1.33.59 1.33 1.33v.14a.1.1 0 0 1-.1.1h-2.21c-1.25 0-2.27 1.02-2.27 2.27s1.02 2.27 2.27 2.27h.49a3.27 3.27 0 0 0 1.744-.503m-3.014-1.767c0-.43.35-.78.78-.78h2.157c.06 0 .107.053.096.112a1.795 1.795 0 0 1-1.763 1.448h-.49c-.43 0-.78-.35-.78-.78"/></g><defs><filter id="a" width="28.875" height="28.875" x="1.934" y="1.313" color-interpolation-filters="sRGB" filterUnits="userSpaceOnUse"><feFlood flood-opacity="0" result="BackgroundImageFix"/><feBlend in="SourceGraphic" in2="BackgroundImageFix" result="shape"/><feColorMatrix in="SourceAlpha" result="hardAlpha" values="0 0 0 0 0 0 0 0 0 0 0 0 0 0 0 0 0 0 127 0"/><feOffset dx="1" dy="-1"/><feGaussianBlur stdDeviation="1.5"/><feComposite in2="hardAlpha" k2="-1" k3="1" operator="arithmetic"/><feColorMatrix values="0 0 0 0 0.188235 0 0 0 0 0.470588 0 0 0 0 0.843137 0 0 0 1 0"/><feBlend in2="shape" result="effect1_innerShadow_18590_2270"/><feColorMatrix in="SourceAlpha" result="hardAlpha" values="0 0 0 0 0 0 0 0 0 0 0 0 0 0 0 0 0 0 127 0"/><feOffset dy="-1"/><feGaussianBlur stdDeviation="1.5"/><feComposite in2="hardAlpha" k2="-1" k3="1" operator="arithmetic"/><feColorMatrix values="0 0 0 0 0.27451 0 0 0 0 0.34902 0 0 0 0 0.8 0 0 0 1 0"/><feBlend in2="effect1_innerShadow_18590_2270" result="effect2_innerShadow_18590_2270"/></filter><filter id="d" width="5.5" height="28.375" x="25.372" y="2.063" color-interpolation-filters="sRGB" filterUnits="userSpaceOnUse"><feFlood flood-opacity="0" result="BackgroundImageFix"/><feBlend in="SourceGraphic" in2="BackgroundImageFix" result="shape"/><feGaussianBlur result="effect1_foregroundBlur_18590_2270" stdDeviation="1"/></filter><filter id="f" width="27.281" height="5.5" x="2.648" y="1.375" color-interpolation-filters="sRGB" filterUnits="userSpaceOnUse"><feFlood flood-opacity="0" result="BackgroundImageFix"/><feBlend in="SourceGraphic" in2="BackgroundImageFix" result="shape"/><feGaussianBlur result="effect1_foregroundBlur_18590_2270" stdDeviation="1"/></filter><filter id="h" width="23.257" height="13.48" x="4.398" y="8.479" color-interpolation-filters="sRGB" filterUnits="userSpaceOnUse"><feFlood flood-opacity="0" result="BackgroundImageFix"/><feBlend in="SourceGraphic" in2="BackgroundImageFix" result="shape"/><feGaussianBlur result="effect1_foregroundBlur_18590_2270" stdDeviation=".5"/></filter><filter id="i" width="22.657" height="12.88" x="4.398" y="9.079" color-interpolation-filters="sRGB" filterUnits="userSpaceOnUse"><feFlood flood-opacity="0" result="BackgroundImageFix"/><feBlend in="SourceGraphic" in2="BackgroundImageFix" result="shape"/><feColorMatrix in="SourceAlpha" result="hardAlpha" values="0 0 0 0 0 0 0 0 0 0 0 0 0 0 0 0 0 0 127 0"/><feOffset dx="-1" dy="1"/><feGaussianBlur stdDeviation="1"/><feComposite in2="hardAlpha" k2="-1" k3="1" operator="arithmetic"/><feColorMatrix values="0 0 0 0 0.866667 0 0 0 0 0.819608 0 0 0 0 0.941176 0 0 0 1 0"/><feBlend in2="shape" result="effect1_innerShadow_18590_2270"/><feColorMatrix in="SourceAlpha" result="hardAlpha" values="0 0 0 0 0 0 0 0 0 0 0 0 0 0 0 0 0 0 127 0"/><feOffset dx=".4" dy="-.4"/><feGaussianBlur stdDeviation=".5"/><feComposite in2="hardAlpha" k2="-1" k3="1" operator="arithmetic"/><feColorMatrix values="0 0 0 0 1 0 0 0 0 0.988235 0 0 0 0 1 0 0 0 1 0"/><feBlend in2="effect1_innerShadow_18590_2270" result="effect2_innerShadow_18590_2270"/></filter><linearGradient id="b" x1="15.872" x2="15.872" y1="5.887" y2="39.14" gradientUnits="userSpaceOnUse"><stop stop-color="#5CB7FF"/><stop offset="1" stop-color="#4878DD"/></linearGradient><linearGradient id="e" x1="28.622" x2="28.622" y1="4.813" y2="27.688" gradientUnits="userSpaceOnUse"><stop stop-color="#7FD9FF"/><stop offset="1" stop-color="#639DF4"/></linearGradient><linearGradient id="g" x1="28.336" x2="2.804" y1="4.375" y2="4.375" gradientUnits="userSpaceOnUse"><stop stop-color="#7DD8FF"/><stop offset="1" stop-color="#5DB6FF"/></linearGradient><radialGradient id="c" cx="0" cy="0" r="1" gradientTransform="matrix(-1.56249 1.46876 -1.71548 -1.82495 27.59 4.406)" gradientUnits="userSpaceOnUse"><stop stop-color="#7BD7FF"/><stop offset="1" stop-color="#7BD7FF" stop-opacity="0"/></radialGradient></defs></svg>
